!!!OTL: Die schoene Magdalena Es hat sich eines Bauers schoenes Toechterlein,
!!!ARE: Europa, Mitteleuropa, Deutschland / France, Lothringen
!!!YOR: 6, S. 64
!!    1939 gedruckt in Kassel
!!!SCT: Q0125A
!!!YEM: Copyright 1995, estate of Helmut Schaffrath.
**kern
*ICvox
*Ivox
*M6/8
*k[b-e-]
*g:
{4d
=1
8.g
16a
16b-
16b-
8a
8g
16f#
16f#
=2
8.g
16a
16b-
16g
4a}
{16dd
16dd
=3
8dd
8dd
8dd
8dd
8b-
8cc
=4
4.dd
4r}
{16b-
16cc
=5
8dd
8dd
16dd
16dd
8cc
8cc
16dd
16cc
=6
16b-
16cc
8dd
4.r}
{16cc
16b-
=7
16a
16b-
8cc
4.r
16b-
16a
=8
8.g
16a
16b-
16g
4a}
{16g
16a
=9
8b-
8dd
16cc
16cc
8dd
8b-
8a
=10
4g
4r}
==
!!!AGN: Ballade, verbotene Liebe, Flucht
!! Schlusspause ergaenzt.
!!    Vierte Zeile = refrainartig, auf Wortwiederholungen.
!!!ONB: ESAC (Essen Associative Code) Database: BALLADE
!!!AMT: compound duple
!!!AIN: vox
!!!EED: Helmut Schaffrath
!!!EEV: 1.0
*-
